dist/images/svg/sprite/user-color.svg

<svg width="23" height="23" viewBox="0 0 23 23" fill="none" xmlns="http://www.w3.org/2000/svg">
<path d="M22.4416 21.5428C20.6236 18.2705 17.7095 16.0363 14.3332 15.2308C15.9375 14.5465 17.2639 13.3034 18.0856 11.7139C18.9073 10.1244 19.1734 8.28719 18.8385 6.5161C18.5035 4.74502 17.5882 3.14998 16.2491 2.00349C14.9099 0.857009 13.2299 0.230225 11.4961 0.230225C9.76233 0.230225 8.08234 0.857009 6.74316 2.00349C5.40399 3.14998 4.48873 4.74502 4.15377 6.5161C3.8188 8.28719 4.08491 10.1244 4.90663 11.7139C5.72835 13.3034 7.05469 14.5465 8.65905 15.2308C5.28715 16.0329 2.36864 18.2705 0.550634 21.5428C0.498007 21.6475 0.486287 21.7694 0.51792 21.8829C0.549554 21.9964 0.622095 22.0928 0.720392 22.152C0.818688 22.2111 0.935136 22.2285 1.04541 22.2003C1.15569 22.1722 1.25126 22.1008 1.31217 22.0011C3.46253 18.1273 7.27243 15.814 11.4961 15.814C15.7198 15.814 19.5297 18.1273 21.6801 22.0011C21.7187 22.0707 21.7741 22.1285 21.841 22.1687C21.9078 22.2089 21.9836 22.2301 22.0608 22.2302C22.1382 22.2305 22.2142 22.2091 22.2809 22.1684C22.3818 22.1075 22.4554 22.0075 22.4855 21.8902C22.5157 21.7729 22.4999 21.6479 22.4416 21.5428ZM4.89317 8.0229C4.89317 6.66325 5.28043 5.33414 6.00597 4.20363C6.73151 3.07312 7.76275 2.192 8.96928 1.67169C10.1758 1.15137 11.5034 1.01523 12.7843 1.28049C14.0651 1.54574 15.2417 2.20047 16.1651 3.16189C17.0885 4.12331 17.7174 5.34823 17.9722 6.68175C18.227 8.01528 18.0962 9.39751 17.5964 10.6537C17.0967 11.9098 16.2504 12.9835 15.1645 13.7389C14.0787 14.4942 12.8021 14.8974 11.4961 14.8974C9.74553 14.8953 8.06723 14.1703 6.82938 12.8816C5.59153 11.5928 4.89521 9.84548 4.89317 8.0229Z" fill="#F3BC28"/>
</svg>

<svg width="23" height="23" fill="none" xmlns="http://www.w3.org/2000/svg"><path d="M22.442 21.543c-1.818-3.273-4.733-5.507-8.109-6.312a7.598 7.598 0 0 0 3.753-3.517 8.074 8.074 0 0 0 .753-5.198 7.856 7.856 0 0 0-2.59-4.513A7.305 7.305 0 0 0 11.496.23a7.304 7.304 0 0 0-4.753 1.773 7.856 7.856 0 0 0-2.59 4.513 8.073 8.073 0 0 0 .754 5.198 7.598 7.598 0 0 0 3.752 3.517c-3.372.802-6.29 3.04-8.108 6.312a.475.475 0 0 0-.033.34c.032.113.104.21.202.269.099.06.215.076.325.048.11-.028.206-.1.267-.199 2.15-3.874 5.96-6.187 10.184-6.187 4.224 0 8.034 2.313 10.184 6.187.039.07.094.127.161.168a.427.427 0 0 0 .44 0 .474.474 0 0 0 .16-.626ZM4.893 8.023c0-1.36.387-2.689 1.113-3.82a6.668 6.668 0 0 1 2.963-2.531 6.36 6.36 0 0 1 3.815-.392c1.281.266 2.458.92 3.381 1.882a6.967 6.967 0 0 1 1.807 3.52 7.137 7.137 0 0 1-.376 3.972 6.822 6.822 0 0 1-2.431 3.085 6.42 6.42 0 0 1-3.669 1.158 6.481 6.481 0 0 1-4.667-2.015 7.029 7.029 0 0 1-1.936-4.86Z" fill="#F3BC28"/></svg>
